X:1
T:James Gibb editions
T:Pilgrim, bend thy footsteps on - Barnby
%%score [ ( 1 2 ) ( 3 4 ) ]
L:1/8
Q:1/4=80
M:4/4
K:Eb
V:1 treble nm="Midi_74"
V:2 treble 
V:3 bass nm="Midi_74"
V:4 bass 
V:1
"^Samuel Flood Jones\n(1826-95)""^78. 86. 87""^Pilgrim, bend thy footsteps on""^Joseph Barnby\n(1838-96)"!p! E3 E E2 F2 | %1
 E2!<(! A2 G2!<)! || c2 | B3 B!>(! A2 E2!>)! | G3 F F2 || F2 | F3 F G2 G2 |!<(! A2 c2!<)! B2 || %8
[M:4/4] d2 | e2 G2 G2 c2 | B6 ||!f! B2 | _d3 d c2 G2 | A2"^dim. e rall." c2 (B2 G2) || %14
"^slower" E3 E E2 A2 | F3 E E4 || E4 E4 |] %17
V:2
 B,3 B, B,2 B,2 | B,2 E2 E2 || E2 | E3 E E2 E2 | E3 D D2 || F2 | F3 F F2 =E2 | F2 F2 F2 || %8
[M:4/4] F2 | E2 E2 E2 E2 | D6 || F2 | =E3 F G2 E2 | F2 F2 (F2 D2) || E2 _D2 C2 E2 | D3 E E4 || %16
 C4 B,4 |] %17
V:3
!p! G,3 G, G,2 A,2 | G,2 A,2 B,2 || C2 | _D3 D C2 C2 | B,3 B, B,2 || D2 | C3 C B,2 B,2 | %7
 A,2 A,2 B,2 || %8
[M:4/4]"^1. Pilgrim, bend thy footsteps on\nIn trembling faith, in humble fear;\nThy crown of glory is not won, \nThy recompense not here;\nBut onward with the angels blest, \nSeek the haven of thy rest.\n\n2. What has life to do with thee,\nIts lingering griefs, its transient bliss?\nTime changes to eternity,\nO pilgrim, ponder this!\nAnd onward with the angels blest,\nSeek the haven of thy rest." A,2 | %9
 G,2 C2 B,2 =A,2 | B,6 ||!f! B,2 | B,3 B, G,2 C2 | %13
"^3. Pilgrim, swerve not in thy faith,\nThought thorns and briars strew the way;\nO heed not what the worldling saith,\nDeath soon will close life's day;\nBut onward with the angels blest, \nSeek the haven of thy rest.\n\n4. Seek it as the one thing worth,\nTurn to thy God in faith and love;\nThe peace thou can'st not find on earth,\nO seek in Heaven above!\nAnd onward with the angels blest,\nFind thy everlasting rest." C2 A,2 B,4 || %14
"^1" G,2 B,2 A,2 C2 | A,3 G, G,4 || A,4 G,4 |] %17
V:4
 E,3 E, E,2 D,2 | E,2 C,2 B,,2 || A,,2 | G,,3 G,, A,,2 A,,2 | B,,3 B,, B,,2 || B,2 | %6
 A,3 A, G,2 G,2 | F,2 E,2 D,2 ||[M:4/4] B,,2 | C,2 C,2 F,2 F,2 | (B,,4 B,2) || !courtesy!_A,2 | %12
 G,3 F, =E,2 C,2 | F,2 !courtesy!_E,2 (D,2 B,,2) || C,2 G,,2 A,,2 F,,2 | B,,3 E, E,4 || A,,4 E,4 |] %17

